X:1
T:Title
%%score ( 1 2 ) 3 { ( 4 6 9 ) | ( 5 7 8 ) }
L:1/8
Q:1/4=110
M:4/4
K:G
V:1 treble nm="Choir Aahs, Choir"
V:2 treble 
V:3 bass nm="Choir Aahs"
V:4 treble nm="Grand Piano"
V:6 treble 
V:9 treble 
V:5 bass 
V:7 bass 
V:8 bass 
V:1
 z8 | z8 | z8 | z8 | =F2 C2 F2 G2 | A2 =F2 A2 _B2 | c4 c4 | c6 z2 | G2 D2 G2 A2 | _B2 G2 B2 c2 | %10
 d4 d4 | d6 z2 | e4 d4 | c2 _B2 A2 B2 | d2 A2 ^G2 A2 | c4 B2 c2 | e2 c2 A2 c2 | B2 d2 c2 B2 | A8- | %19
 A2 z2 z4 |[M:1/4] D2 |[M:4/4] [DB]3 [DB] [Ec]2 [DB]2 | [Dd]4 [FA]2 [FB]2 | %23
 [EG]2 [=FG]2 [Ec]2 [Ec]2 | [DB]6 [DB]2 | [Ee]3 [Ee] [EA]2 [DA]2 | [Dd]4 [EG]2 [Ac]2 | %27
 z4 B2 z2[Q:1/4=108][Q:1/4=107][Q:1/4=105][Q:1/4=104][Q:1/4=102][Q:1/4=100][Q:1/4=99][Q:1/4=97][Q:1/4=95][Q:1/4=94][Q:1/4=92][Q:1/4=91][Q:1/4=89][Q:1/4=87][Q:1/4=86][Q:1/4=84] | %28
[M:3/4] [DG]6 |] %29
V:2
 x8 | x8 | x8 | x8 | x8 | x8 | x8 | x8 | x8 | x8 | x8 | x8 | x8 | x8 | x8 | x8 | x8 | x8 | x8 | %19
 x8 |[M:1/4] x2 |[M:4/4] x8 | x8 | x8 | x8 | x8 | x8 | [GB]2 [EB]2 FE [DA]2 |[M:3/4] x6 |] %29
V:3
 z8 | z8 | z8 | z8 | z8 | z8 | z8 | z8 | z8 | z8 | z8 | z8 | z8 | z8 | z8 | z8 | z8 | z8 | z8 | %19
 z8 |[M:1/4] [A,,F,]2 |[M:4/4] [G,,G,]3 [G,,G,] [G,,G,]2 G,2 | [F,A,]4 [D,C]2 [^D,B,]2 | %23
 [E,B,]2 [D,B,]2 [C,G,]2 [E,G,]2 | G,6 G,2 | [C,G,]3 [C,G,] [^C,G,]2 [=C,F,]2 | %26
 [B,,G,]4 [E,B,]2 [A,,E]2 | [B,,E]2 [E,D]2 [A,,^C]2 [D,=C]2 |[M:3/4] [G,,B,]6 |] %29
V:4
 [=F=f]2 c2 [Ff]2 [Gg]2 | [Aa]2 [=F=f]2 [Aa]2 [_B_b]2 | z2 [eg]2 z2 [eg]2 | [cegc']6 z2 | %4
w: Chas.~H.~Gabriel * * *||||
 =F2 C2 F2 G2 | A2 =F2 A2 _B2 | c4 c4 | [C=FAc]6[K:bass][K:treble] z2 | G2 D2 G2 A2 | %9
w: |||||
 _B2 G2 B2 c2 | d4 d4 | [DG_Bd]6 z2 | e2- [_Be]2 z2 B2 | c2 _B2 A2 B2 | [=FAd]2 A2 ^G2 A2 | %15
w: ||||||
 c4 B2 c2 | [EAce]2 c2 A2 c2 | [^GB]2 [Bd]2 [Ac]2 B2 | z2 A,2 E,2 z2 | z2 _B2 =B2 c2 |[M:1/4] D2 | %21
w: ||||||
[M:4/4] z2 (3GGG c2 B2 | z2 (3AAA z2 B2 | G2 G2 c2 c2 | z2 (3GGG G2 B2[K:bass] | %25
w: ||||
 z2 [Gce]2[K:bass][K:treble] z2 A2 | [G,DA]4 G2 c2 | B2 B2 B2 A2 |[M:3/4] [G,B,DG]6 |] %29
w: ||||
V:5
 [=F,,=F,]2 [C,C]2 [F,,F,]2 [G,,G,]2 | [A,,A,]2 [=F,,=F,]2 [A,,A,]2 [_B,,_B,]2 | %2
 [C,C]2 [D,D]2 [E,E]2 [D,D]2 | [C,C]2 _B,,2 A,,2 G,,2 | [=F,,=F,]2 [C,,C,]2 [F,,F,]2 [G,,G,]2 | %5
 [A,,A,]2 [=F,,=F,]2 [A,,A,]2 [_B,,_B,]2 | [C,C]2 [_B,,_B,]2 [A,,A,]2 [G,,G,]2 | %7
 [=F,,=F,]2 C,,2 F,,2 [^F,,^F,]2 | [G,,G,]2 [D,,D,]2 [G,,G,]2 [C,A,]2 | %9
 [_B,,_B,]2 [G,,G,]2 [B,,B,]2 [C,C]2 | [D,D]2 [C,C]2 [_B,,_B,]2 [A,,A,]2 | %11
 [G,,G,]2 A,,2 _B,,2 [B,,_B,]2 | z2 [EG]2 [EG_B]2 [EG]2 | [=FA]2 G2 ^F2 G2 | z8 | A4 z4 | z8 | %17
 [DE]8 | [A,,A,]2 A,,2 E,,2 C,,2 | A,,,2 _B,2 =B,2 C2 |[M:1/4] [A,,D,F,]2 | %21
[M:4/4] (3z [B,D][B,D] z2 (3z[K:treble] [CE][CE] z2 | %22
 (3z[K:treble] [DF][DF] z2[K:bass] (3z[K:treble] [DF][DF][K:bass] (3z[K:treble] [DF][DF] | %23
 E,2 D,2 C,2 E,2 | z2 (3[D,B,D][E,B,D][F,B,D] [G,B,D]2 z2 | (3z D,^D, z2 [^C,G,]2 (3z DD | %26
 z2 (3D,C,B,, z4 | [B,,,B,,]2 [E,,E,]2 [A,,,A,,]2 [D,,D,]2 |[M:3/4] (3z F,E, z2 z2 |] %29
V:6
 x8 | x8 | [cc']4 [cc']4 | z2 _B,2 A,2 G,2 | x8 | x8 | z2 [CG]2 z2 [CE_B]2 | %7
 z2[K:bass] C,2 =F,2[K:treble] [C^DA]2 | x8 | x8 | z2 [FAc]2 [DG_B]2 [DFAc]2 | %11
 z2 A,2 _B,2 [=FGd]2 | [EG_B]2 z2 d4 | x8 | x8 | x8 | x8 | x8 | [CEA]8- | [CEA]2 z2 z4 | %20
[M:1/4] x2 |[M:4/4] (3[B,DGB-][GB-][GB-] B2 (3[CEG]GG (3z GG | %22
 (3[DFAd-][Ad-][Ad-] d2 (3[DFA]AA (3[DFA]AA | %23
 (3[B,E]EE (3[B,D=F]FF (3[CEG][CEG][CEG] (3[CEG][CEG][CEG] | z4 z2 D2[K:bass] | %25
 [EGce]2 (3z[K:bass] ^D,=D,[K:treble] A2 (3z FF | x8 | x8 |[M:3/4] x6 |] %29
V:7
 x8 | x8 | x8 | x8 | x8 | x8 | x8 | x8 | x8 | x8 | x8 | x8 | [C,C]8- | [C,C]8 | %14
 z2 [C=F]2 [B,F]2 [CF]2 | ^D4- [D-^G]2 [DA]2 | z2 [EA]2 [CE]2 [EA]2 | z4 [F,,F,]2 [^G,,^G,]2 | x8 | %19
 x8 |[M:1/4] x2 |[M:4/4] z2 (3[B,D][B,D][B,D] z2[K:treble] (3[B,DG][B,D][B,D] | %22
 z2[K:treble] (3[DF][DF][DF][K:bass] D,2[K:treble][K:bass] ^D,2[K:treble] | %23
 (3z B,B, (3z [B,D][B,D] (3[C,,B,,][D,,D,][^D,,^D,] (3E,,[=F,,=F,][^F,,^F,] | %24
 (3[G,,G,-][A,,G,-][B,,G,-] G,2 z2 .[G,,G,]2 | z2 .E,2 z2 F,2 | B,,4 z4 | x8 | %28
[M:3/4] z2 (3D,B,,A,, G,,2 |] %29
V:8
 x8 | x8 | x8 | x8 | x8 | x8 | x8 | x8 | x8 | x8 | x8 | x8 | x8 | x8 | [=F,,=F,]8- | [F,,F,]8 | %16
 [E,,E,]8- | [E,,E,]4 z4 | x8 | x8 |[M:1/4] x2 |[M:4/4] [G,,G,]4 [G,,G,]4[K:treble] | %22
 [F,,F,]4[K:treble][K:bass] D,,2[K:treble][K:bass] ^D,,2[K:treble] | E,,2 D,,2 z4 | x8 | %25
 [C,G,]4 z2 =C,2 | (3z C,C, z2 [E,,E,]2 [A,,,A,,]2 | x8 |[M:3/4] G,,4 z2 |] %29
V:9
 x8 | x8 | x8 | x8 | x8 | x8 | x8 | x2[K:bass] x4[K:treble] x2 | x8 | x8 | x8 | x8 | x8 | x8 | x8 | %15
 x8 | x8 | x8 | x8 | x8 |[M:1/4] x2 |[M:4/4] x8 | x8 | x8 | %24
 (3[B,DGB-][B,DGB-][B,DGB-] B4 (3z[K:bass] A,,B,, | z2 E2[K:bass][K:treble] z4 | x8 | x8 | %28
[M:3/4] x6 |] %29

